X:67
T:Britannia Two Step
S:http://lesters-tune-a-day.blogspot.co.uk/2013/01/tune-140-britannia-two-step.html
M:6/8
L:1/8
K:D
F2F FED | A2A A2F | G2G GFE | B2B B3  |\
c2c c2d | e2d cBA | d2c d2e | fed cBA ||
F2F FED | A2A A2F | G2G GFE | B2B B2c |\
d3  dcB | A3  AGF | EFG ABc | dAB cde |]
f3  f3  | fed A3  | dcd e2d | c3  B3  |\
g3  g3  | gfe B3  | c2c c2d | e2d cBA ||
f3  f3  | fed A3  | dcd e2d | c3  B3  |\
g3  gfe | d3  dcB | A2z c3  | d3- d3  |]
